swiss/communes/0040.svg

<?xml version="1.0" encoding="UTF-8" standalone="no"?>
<!-- Created with Inkscape (http://www.inkscape.org/) -->
<svg
   xmlns:svg="http://www.w3.org/2000/svg"
   xmlns="http://www.w3.org/2000/svg"
   version="1.0"
   width="212.60628"
   height="249.03516"
   id="svg2780">
  <defs
     id="defs2782" />
  <g
     transform="translate(-17.712609,-800.29563)"
     id="layer1">
    <path
       d="M 124.03125,-3.03125 L 124.03125,244 C 174.08443,244 224.13242,215.26254 225.5,157.8125 L 229.3125,-3.03125 L 124.03125,-3.03125 z"
       transform="translate(0,804.33069)"
       id="rect4552"
       style="color:#000000;fill:#f1de2e;fill-opacity:1;fill-rule:evenodd;stroke:none;stroke-width:1.00000012px;stroke-linecap:butt;stroke-linejoin:miter;marker:none;marker-start:none;marker-mid:none;marker-end:none;stroke-miterlimit:4;stroke-dasharray:none;stroke-dashoffset:0;stroke-opacity:1;visibility:visible;display:inline;overflow:visible;enable-background:accumulate" />
    <path
       d="M 18.71875,-3.03125 L 22.53125,157.8125 C 23.898818,215.26253 73.978066,244 124.03125,244 L 124.03125,-3.03125 L 18.71875,-3.03125 z"
       transform="translate(0,804.33069)"
       id="rect3784"
       style="color:#000000;fill:#ffffff;fill-opacity:1;fill-rule:evenodd;stroke:#000000;stroke-width:1.00000012px;stroke-linecap:butt;stroke-linejoin:miter;marker:none;marker-start:none;marker-mid:none;marker-end:none;stroke-miterlimit:4;stroke-dasharray:none;stroke-dashoffset:0;stroke-opacity:1;visibility:visible;display:inline;overflow:visible;enable-background:accumulate" />
    <path
       d="M 124.03125,84.4375 L 22.46875,155.25 L 22.53125,157.8125 C 22.921673,174.21375 27.275105,188.2811 34.46875,200 L 124.03125,137.5625 L 124.03125,84.4375 z"
       transform="translate(0,804.33069)"
       id="rect4295"
       style="color:#000000;fill:#c62e18;fill-opacity:1;fill-rule:evenodd;stroke:#000000;stroke-width:1.00000012px;stroke-linecap:butt;stroke-linejoin:miter;marker:none;marker-start:none;marker-mid:none;marker-end:none;stroke-miterlimit:4;stroke-dashoffset:0;stroke-opacity:1;visibility:visible;display:inline;overflow:visible;enable-background:accumulate" />
    <path
       d="M 124.03125,187.90625 L 65,229.0625 C 82.326414,239.0224 103.19046,244 124.03125,244 L 124.03125,187.90625 z"
       transform="translate(0,804.33069)"
       id="path4300"
       style="color:#000000;fill:#c62e18;fill-opacity:1;fill-rule:evenodd;stroke:#000000;stroke-width:1.00000012px;stroke-linecap:butt;stroke-linejoin:miter;marker:none;marker-start:none;marker-mid:none;marker-end:none;stroke-miterlimit:4;stroke-dashoffset:0;stroke-opacity:1;visibility:visible;display:inline;overflow:visible;enable-background:accumulate" />
    <path
       d="M 100.6875,-3.03125 L 20.0625,53.1875 L 21.28125,105.46875 L 124.03125,33.84375 L 124.03125,-3.03125 L 100.6875,-3.03125 z"
       transform="translate(0,804.33069)"
       id="path4528"
       style="color:#000000;fill:#c62e18;fill-opacity:1;fill-rule:evenodd;stroke:#000000;stroke-width:1.00000012px;stroke-linecap:butt;stroke-linejoin:miter;marker:none;marker-start:none;marker-mid:none;marker-end:none;stroke-miterlimit:4;stroke-dashoffset:0;stroke-opacity:1;visibility:visible;display:inline;overflow:visible;enable-background:accumulate" />
    <path
       d="M 18.712609,801.29563 L 22.54181,962.15573 C 25.276946,1077.0558 222.75454,1077.0558 225.48969,962.15573 L 229.31889,801.29563 L 18.712609,801.29563 z"
       id="path3282"
       style="fill:none;fill-opacity:1;fill-rule:evenodd;stroke:#000000;stroke-width:2;stroke-linecap:butt;stroke-miterlimit:4;stroke-dashoffset:0;stroke-opacity:1" />
  </g>
</svg>

<svg xmlns="http://www.w3.org/2000/svg" version="1.0" width="212.606" height="249.035"><path d="M124.031-3.031V244c50.053 0 100.101-28.737 101.469-86.188L229.313-3.03H124.03z" transform="translate(-17.713 4.035)" style="color:#000;fill:#f1de2e;fill-opacity:1;fill-rule:evenodd;stroke:none;stroke-width:1.00000012px;stroke-linecap:butt;stroke-linejoin:miter;marker:none;marker-start:none;marker-mid:none;marker-end:none;stroke-miterlimit:4;stroke-dasharray:none;stroke-dashoffset:0;stroke-opacity:1;visibility:visible;display:inline;overflow:visible;enable-background:accumulate"/><path d="m18.719-3.031 3.812 160.844C23.9 215.262 73.978 244 124.031 244V-3.031H18.72z" transform="translate(-17.713 4.035)" style="color:#000;fill:#fff;fill-opacity:1;fill-rule:evenodd;stroke:#000;stroke-width:1.00000012px;stroke-linecap:butt;stroke-linejoin:miter;marker:none;marker-start:none;marker-mid:none;marker-end:none;stroke-miterlimit:4;stroke-dasharray:none;stroke-dashoffset:0;stroke-opacity:1;visibility:visible;display:inline;overflow:visible;enable-background:accumulate"/><path d="M124.031 84.438 22.47 155.25l.062 2.563c.39 16.4 4.744 30.468 11.938 42.187l89.562-62.438V84.438z" transform="translate(-17.713 4.035)" style="color:#000;fill:#c62e18;fill-opacity:1;fill-rule:evenodd;stroke:#000;stroke-width:1.00000012px;stroke-linecap:butt;stroke-linejoin:miter;marker:none;marker-start:none;marker-mid:none;marker-end:none;stroke-miterlimit:4;stroke-dashoffset:0;stroke-opacity:1;visibility:visible;display:inline;overflow:visible;enable-background:accumulate"/><path d="M124.031 187.906 65 229.062C82.326 239.023 103.19 244 124.031 244v-56.094z" transform="translate(-17.713 4.035)" style="color:#000;fill:#c62e18;fill-opacity:1;fill-rule:evenodd;stroke:#000;stroke-width:1.00000012px;stroke-linecap:butt;stroke-linejoin:miter;marker:none;marker-start:none;marker-mid:none;marker-end:none;stroke-miterlimit:4;stroke-dashoffset:0;stroke-opacity:1;visibility:visible;display:inline;overflow:visible;enable-background:accumulate"/><path d="M100.688-3.031 20.061 53.187l1.22 52.282 102.75-71.625V-3.031h-23.344z" transform="translate(-17.713 4.035)" style="color:#000;fill:#c62e18;fill-opacity:1;fill-rule:evenodd;stroke:#000;stroke-width:1.00000012px;stroke-linecap:butt;stroke-linejoin:miter;marker:none;marker-start:none;marker-mid:none;marker-end:none;stroke-miterlimit:4;stroke-dashoffset:0;stroke-opacity:1;visibility:visible;display:inline;overflow:visible;enable-background:accumulate"/><path d="m18.713 801.296 3.829 160.86c2.735 114.9 200.213 114.9 202.948 0l3.829-160.86H18.713z" style="fill:none;fill-opacity:1;fill-rule:evenodd;stroke:#000;stroke-width:2;stroke-linecap:butt;stroke-miterlimit:4;stroke-dashoffset:0;stroke-opacity:1" transform="translate(-17.713 -800.296)"/></svg>
